X:32
T:White Hart, The
M:3/2
L:1/4
Q:1/2=100
S:D.Wright, Extraordinary Collection, London 1713
Z:Pete Stewart, 2004 <www.hornpipemusic.co.uk>
K:A
AeAB/c/ d/c/B/A/ | GB2EGB | AeA B/c/ d/c/B/A/ | EA2EGB ||
Aagf/g/ a/g/f/e/ | gB2EGB | Aagf/g/ a/g/f/e/ | cA2EGB ||
A/B/c/B/ A/B/c/B/ A/B/c/B/ | gB2EGB | A/B/c/B/ A/B/c/B/ A/B/c/A/ | aA2EGB ||
c2d2e2 | AB/c/ d/c/B/A/ GB | c2d2e/f/g/e/ | aA2EGB ||
c2d2e2 | AB/c/ d/c/B/A/GB | cedfeg | aA2EGB ||
cB/c/dc/d/ e/f/g/e/ | gB2EGB | cedfeg | aA2EGB |]

